icons/svgs/xmark-large-outline.svg

<svg width="24" height="24" viewBox="0 0 24 24" fill="none" xmlns="http://www.w3.org/2000/svg">
<path d="M4.85156 3.52344L12 10.7109L19.1484 3.5625C19.5 3.17188 20.0859 3.17188 20.4766 3.5625C20.8281 3.91406 20.8281 4.5 20.4766 4.85156L13.2891 12.0391L20.4375 19.1875C20.8281 19.5391 20.8281 20.125 20.4375 20.4766C20.0859 20.8672 19.5 20.8672 19.1484 20.4766L11.9609 13.3281L4.8125 20.4766C4.46094 20.8672 3.875 20.8672 3.52344 20.4766C3.13281 20.125 3.13281 19.5391 3.52344 19.1484L10.6719 12L3.52344 4.85156C3.13281 4.5 3.13281 3.91406 3.52344 3.52344C3.875 3.17188 4.46094 3.17188 4.85156 3.52344Z" fill="black"/>
</svg>

<svg xmlns="http://www.w3.org/2000/svg" width="24" height="24" fill="currentColor" class="icon-xmark-large-outline" viewBox="0 0 24 24">
  <mask id="a" width="18" height="18" x="3" y="3" maskUnits="userSpaceOnUse" style="mask-type:alpha">
    <path d="M4.852 3.523 12 10.711l7.148-7.148c.352-.391.938-.391 1.329 0a.92.92 0 0 1 0 1.289l-7.188 7.187 7.149 7.149c.39.351.39.937 0 1.289a.856.856 0 0 1-1.29 0l-7.187-7.149-7.148 7.149a.856.856 0 0 1-1.29 0c-.39-.352-.39-.938 0-1.329L10.672 12 3.523 4.852c-.39-.352-.39-.938 0-1.329.352-.351.938-.351 1.329 0"/>
  </mask>
  <g mask="url(#a)">
    <path d="M0 0h24v24H0z"/>
  </g>
</svg>
